og-image.svg

<svg height="630" viewBox="0 0 1200 630" width="1200" xmlns="http://www.w3.org/2000/svg"><path d="m0 0h1200v630h-1200z" fill="#2b2b2b"/><path d="m0 100h1200m-1200 100h1200m-1200 100h1200m-1200 100h1200m-1200 100h1200m-1000-500v630m200-630v630m200-630v630m200-630v630m200-630v630" opacity=".06" stroke="#fdf0d5"/><circle cx="180" cy="160" fill="#e63946" opacity=".5" r="12"/><circle cx="220" cy="200" fill="#e63946" opacity=".4" r="10"/><circle cx="150" cy="220" fill="#e63946" opacity=".3" r="8"/><circle cx="950" cy="140" fill="#2d6a4f" opacity=".5" r="11"/><circle cx="1010" cy="170" fill="#2d6a4f" opacity=".4" r="9"/><circle cx="980" cy="120" fill="#2d6a4f" opacity=".3" r="7"/><circle cx="1050" cy="450" fill="#1d3557" opacity=".5" r="10"/><circle cx="1090" cy="480" fill="#1d3557" opacity=".4" r="8"/><circle cx="130" cy="430" fill="#7b2cbf" opacity=".5" r="10"/><circle cx="170" cy="460" fill="#7b2cbf" opacity=".4" r="8"/><circle cx="250" cy="500" fill="#e76f51" opacity=".4" r="9"/><circle cx="900" cy="500" fill="#e07a5f" opacity=".4" r="9"/><path d="m0 610h1200v20h-1200z" fill="#e63946"/><g text-anchor="middle"><text dominant-baseline="central" font-size="100" x="600" y="130">🍔</text><text fill="#fdf0d5" font-family="-apple-system, BlinkMacSystemFont, 'Segoe UI', Roboto, Helvetica, Arial, sans-serif" font-size="64" font-weight="700" letter-spacing=".02em" x="600" y="260">Santa Barbara</text><text fill="#fdf0d5" font-family="-apple-system, BlinkMacSystemFont, 'Segoe UI', Roboto, Helvetica, Arial, sans-serif" font-size="64" font-weight="700" letter-spacing=".02em" x="600" y="335">Burger Week 2026</text><text fill="#e76f51" font-family="-apple-system, BlinkMacSystemFont, 'Segoe UI', Roboto, Helvetica, Arial, sans-serif" font-size="34" font-weight="400" x="600" y="395">February 19–25</text><text fill="#999" font-family="-apple-system, BlinkMacSystemFont, 'Segoe UI', Roboto, Helvetica, Arial, sans-serif" font-size="24" font-weight="400" x="600" y="455">Interactive Map of Restaurants joining Burger Week</text><text fill="#666" font-family="-apple-system, BlinkMacSystemFont, 'Segoe UI', Roboto, Helvetica, Arial, sans-serif" font-size="22" font-weight="400" x="600" y="540">sbburgerweekmap.com</text></g></svg>

<svg xmlns="http://www.w3.org/2000/svg" width="1200" height="630" viewBox="0 0 1200 630"><path fill="#2b2b2b" d="M0 0h1200v630H0z"/><path stroke="#fdf0d5" d="M0 100h1200M0 200h1200M0 300h1200M0 400h1200M0 500h1200M200 0v630M400 0v630M600 0v630M800 0v630M1000 0v630" opacity=".06"/><circle cx="180" cy="160" r="12" fill="#e63946" opacity=".5"/><circle cx="220" cy="200" r="10" fill="#e63946" opacity=".4"/><circle cx="150" cy="220" r="8" fill="#e63946" opacity=".3"/><circle cx="950" cy="140" r="11" fill="#2d6a4f" opacity=".5"/><circle cx="1010" cy="170" r="9" fill="#2d6a4f" opacity=".4"/><circle cx="980" cy="120" r="7" fill="#2d6a4f" opacity=".3"/><circle cx="1050" cy="450" r="10" fill="#1d3557" opacity=".5"/><circle cx="1090" cy="480" r="8" fill="#1d3557" opacity=".4"/><circle cx="130" cy="430" r="10" fill="#7b2cbf" opacity=".5"/><circle cx="170" cy="460" r="8" fill="#7b2cbf" opacity=".4"/><circle cx="250" cy="500" r="9" fill="#e76f51" opacity=".4"/><circle cx="900" cy="500" r="9" fill="#e07a5f" opacity=".4"/><path fill="#e63946" d="M0 610h1200v20H0z"/><text x="600" y="130" dominant-baseline="central" font-size="100" text-anchor="middle">🍔</text><text x="600" y="260" fill="#fdf0d5" font-family="-apple-system, BlinkMacSystemFont, 'Segoe UI', Roboto, Helvetica, Arial, sans-serif" font-size="64" font-weight="700" letter-spacing=".02em" text-anchor="middle">Santa Barbara</text><text x="600" y="335" fill="#fdf0d5" font-family="-apple-system, BlinkMacSystemFont, 'Segoe UI', Roboto, Helvetica, Arial, sans-serif" font-size="64" font-weight="700" letter-spacing=".02em" text-anchor="middle">Burger Week 2026</text><text x="600" y="395" fill="#e76f51" font-family="-apple-system, BlinkMacSystemFont, 'Segoe UI', Roboto, Helvetica, Arial, sans-serif" font-size="34" font-weight="400" text-anchor="middle">February 19–25</text><text x="600" y="455" fill="#999" font-family="-apple-system, BlinkMacSystemFont, 'Segoe UI', Roboto, Helvetica, Arial, sans-serif" font-size="24" font-weight="400" text-anchor="middle">Interactive Map of Restaurants joining Burger Week</text><text x="600" y="540" fill="#666" font-family="-apple-system, BlinkMacSystemFont, 'Segoe UI', Roboto, Helvetica, Arial, sans-serif" font-size="22" font-weight="400" text-anchor="middle">sbburgerweekmap.com</text></svg>
